!!!COM: Beethoven
!!!OTL: Six Variations on an Original Theme
!!!Variation: Variation 6 b3
**kern	**harm	**kern	**kern
*M2/4	*M2/4	*staff1	*staff2
*D:	*D:	*clefG2	*clefF4
*	*	*M2/4	*M2/4
*	*	*D:	*D:
*	*	*tb16	*tb16
=-	=-	=	=
2T	2vi	(8f#L 8dd	8BBBL 8BB
.	.	8dJ) 8b	8BBJ
.	.	8d'L 8b'	8BBL
.	.	8d'J 8b'	8BBJ
=	=	=163	=163
2T	2V7	(8gL 8ee	8AAAL 8AA
.	.	8eJ) 8cc#	8AAJ
.	.	8e'L 8cc#'	8AAL
.	.	8e'J 8cc#'	8AAJ
=	=	=164	=164
2T	2V7	([8eL 8g 8ee	8AAAL 8AA
.	.	8eJ]) 8g 8cc#	8AAJ
.	.	([8eL 8g 8ee	8AAAL 8AA
.	.	8eJ]) 8g 8cc#	8AAJ
=	=	=165	=165
2T	2I	([8f#L 8a 8ff#	8DDL 8D
.	.	8f#J]) 8a 8dd	8DJ
.	.	([8f#L 8a 8ff#	8DDL 8D
.	.	8f#J]) 8a 8dd	8DJ
=	=	=166	=166
2T	2I	(8ff#L 8aa	(8DL 8F# 8A
.	.	8ddJ) 8ff#	8DJ) 8F#
.	.	8dd'L 8ff#'	8D'L 8F#'
.	.	8dd'J 8ff#'	8D'J 8F#'
=	=	=167	=167
2T	2I	(8ff#L 8aa	(8DL 8F# 8A
.	.	8ddJ) 8ff#	8DJ) 8F#
.	.	8dd'L 8ff#'	8D'L 8F#'
.	.	8ddd'J 8fff#'	8d'J 8f#'
=	=	=168	=168
8T	8I	16ccc#LL 16eee	8d'L 8f#'
.	.	16bb 16ddd	.
8P	8ii6	16aa 16ccc#	8G'J 8e' 8g'
.	.	16ggJJ 16bb	.
8D	8I64	8ff#'L 8aa'	8A'L 8d' 8f#'
8D	8V7	8ee'J 8gg' 8aa' 8ccc#'	8AA'J 8C#' 8E' 8A'
=	=	=169	=169
4.T	4.vi	4dd 4ff# 4aa 4ddd	4DD 4FF# 4AA 4D
.	.	8r	8r
*-	*-	*-	*-
